X: 2
T: Beare Island
R: reel
M: 4/4
L: 1/8
K: Edor
(3EEE) ||: EB ^GBAG Ec | dBcA be ee | d2 ed AdFd | GE FD EDB,D |EB,EF G3 A | BAGA Be ef | geaf gfec | dBAF E z (3EEE):||e e^d ||: eBef geed | (3Bcd) Ad Fd Dd | Beef geed |(3efe) ^df eBef |edBc dBcd | BcdB AdFA | GB (3BBB) AGFA | (3GFE) ^DF Ee e^d :||


Tune 696	Setting 13757

